X:6
T:Toni-Polka A&D (tinwhistle in D)
T:pk00991 (Hanny Christen)
%%MIDI program 72   % 111 /74 / 79=whistle
R:polka
M:2/4
L:1/16
K:A %%MIDI gchordon
"A"EAce A2c2 | "E7"EGBe G2d2 | EGBe edcB | "A"AcAFE4 | EAce A2c2 | "E7"EGBe G2d2 | 
EGBe edcB |1 "A"A2c2 A2z2 :|2 "A"A2c2 A2((3F=G^G) |: [K:D] "D"AffA "A7"GeeG | "D"FddF BAF2 | "A7"EccA BAG2 | 
"D"FddF BAFG | AffA "A7"GeeG | "D"FddA BAF2 | "A7"EccA BAGc |1 "D"d2f2 d2((3FG^G) :|2 "D"d2f2 d2z2 |] 

